elementary-xfce/mimetypes/64/application-x-partial-download.svg

<?xml version="1.0" encoding="UTF-8" standalone="no"?>
<svg
   height="64"
   id="svg11300"
   style="display:inline;enable-background:new"
   version="1.0"
   viewBox="0 0 64 64"
   width="64"
   xmlns:xlink="http://www.w3.org/1999/xlink"
   xmlns="http://www.w3.org/2000/svg"
   xmlns:svg="http://www.w3.org/2000/svg"
   xmlns:rdf="http://www.w3.org/1999/02/22-rdf-syntax-ns#"
   xmlns:cc="http://creativecommons.org/ns#"
   xmlns:dc="http://purl.org/dc/elements/1.1/">
  <metadata
     id="metadata155">
    <rdf:RDF>
      <cc:Work
         rdf:about="">
        <dc:format>image/svg+xml</dc:format>
        <dc:type
           rdf:resource="http://purl.org/dc/dcmitype/StillImage" />
        <dc:title>elementary Icon Template</dc:title>
      </cc:Work>
    </rdf:RDF>
  </metadata>
  <title
     id="title4162">elementary Icon Template</title>
  <defs
     id="defs3">
    <linearGradient
       id="linearGradient10457">
      <stop
         id="stop10453"
         offset="0"
         style="stop-color:#000000;stop-opacity:1;" />
      <stop
         id="stop10455"
         offset="1"
         style="stop-color:#000000;stop-opacity:0;" />
    </linearGradient>
    <linearGradient
       id="linearGradient3977">
      <stop
         id="stop3979"
         offset="0"
         style="stop-color:#ffffff;stop-opacity:1" />
      <stop
         id="stop3981"
         offset="0"
         style="stop-color:#ffffff;stop-opacity:0.23529412" />
      <stop
         id="stop3983"
         offset="1"
         style="stop-color:#ffffff;stop-opacity:0.15686275" />
      <stop
         id="stop3985"
         offset="1"
         style="stop-color:#ffffff;stop-opacity:0.39215687" />
    </linearGradient>
    <linearGradient
       id="linearGradient3600">
      <stop
         id="stop3602"
         offset="0"
         style="stop-color:#f4f4f4;stop-opacity:1" />
      <stop
         id="stop3604"
         offset="1"
         style="stop-color:#dbdbdb;stop-opacity:1" />
    </linearGradient>
    <linearGradient
       id="linearGradient5048">
      <stop
         id="stop5050"
         offset="0"
         style="stop-color:#000000;stop-opacity:0" />
      <stop
         id="stop5056"
         offset="0.5"
         style="stop-color:#000000;stop-opacity:1" />
      <stop
         id="stop5052"
         offset="1"
         style="stop-color:#000000;stop-opacity:0" />
    </linearGradient>
    <linearGradient
       id="linearGradient3104-6">
      <stop
         id="stop3106-3"
         offset="0"
         style="stop-color:#000000;stop-opacity:0.31782946" />
      <stop
         id="stop3108-9"
         offset="1"
         style="stop-color:#000000;stop-opacity:0.24031007" />
    </linearGradient>
    <linearGradient
       gradientTransform="matrix(1.0843523,0,0,1.1997367,79.65086,-4.1628)"
       gradientUnits="userSpaceOnUse"
       xlink:href="#linearGradient3104-6"
       id="linearGradient3033"
       x1="-51.786404"
       x2="-51.786404"
       y1="50.786446"
       y2="2.9062471" />
    <linearGradient
       gradientTransform="matrix(1.2162162,0,0,1.5405376,2.91082,-6.97289)"
       gradientUnits="userSpaceOnUse"
       xlink:href="#linearGradient3977"
       id="linearGradient3093"
       x1="23.99999"
       x2="23.99999"
       y1="5.8641062"
       y2="42.175503" />
    <linearGradient
       gradientTransform="matrix(1.3142827,0,0,1.2602393,0.55721,-2.17926)"
       gradientUnits="userSpaceOnUse"
       xlink:href="#linearGradient3600"
       id="linearGradient3096"
       x1="25.132275"
       x2="25.132275"
       y1="0.98520643"
       y2="47.013336" />
    <radialGradient
       cx="605.71429"
       cy="486.64789"
       fx="605.71429"
       fy="486.64789"
       gradientTransform="matrix(0.03132633,0,0,0.02058823,35.32086,49.45148)"
       gradientUnits="userSpaceOnUse"
       xlink:href="#linearGradient10457"
       id="radialGradient3153"
       r="117.14286" />
    <radialGradient
       cx="605.71429"
       cy="486.64789"
       fx="605.71429"
       fy="486.64789"
       gradientTransform="matrix(-0.03132632,0,0,0.02058823,28.87914,49.45148)"
       gradientUnits="userSpaceOnUse"
       xlink:href="#linearGradient10457"
       id="radialGradient3156"
       r="117.14286" />
    <linearGradient
       gradientTransform="matrix(0.09153846,0,0,0.02058823,-0.98462,49.45148)"
       gradientUnits="userSpaceOnUse"
       xlink:href="#linearGradient5048"
       id="linearGradient3842"
       x1="302.85715"
       x2="302.85715"
       y1="366.64789"
       y2="609.50507" />
  </defs>
  <g
     id="g962">
    <rect
       height="5"
       id="rect2879-94"
       style="display:inline;overflow:visible;visibility:visible;opacity:0.15;fill:url(#linearGradient3842);fill-opacity:1;fill-rule:nonzero;stroke:none;stroke-width:1;marker:none"
       width="44.199997"
       x="10"
       y="57.000065" />
    <path
       d="m 10,57.00028 v 4.9997 c -1.61323,0.01 -3.9,-1.1202 -3.9,-2.5002 0,-1.38 1.80024,-2.4995 3.9,-2.4995 z"
       id="path2881"
       style="display:inline;overflow:visible;visibility:visible;opacity:0.15;fill:url(#radialGradient3156);fill-opacity:1;fill-rule:nonzero;stroke:none;stroke-width:1;marker:none" />
    <path
       d="m 54.2,57.00028 v 4.9997 c 1.61323,0.01 3.9,-1.1202 3.9,-2.5002 0,-1.38 -1.80024,-2.4995 -3.9,-2.4995 z"
       id="path2883"
       style="display:inline;overflow:visible;visibility:visible;opacity:0.15;fill:url(#radialGradient3153);fill-opacity:1;fill-rule:nonzero;stroke:none;stroke-width:1;marker:none" />
    <path
       d="m 9.1,0.99994 c 10.54093,0 45.99994,0.004 45.99994,0.004 L 55.1,59.00008 H 9.1 V 1.00026 Z"
       id="path4160-6"
       style="display:inline;fill:url(#linearGradient3096);fill-opacity:1;stroke:none" />
    <path
       d="M 54.6,58.50008 H 9.6 V 1.50004 h 45 z"
       id="rect6741-1-8"
       style="fill:none;stroke:url(#linearGradient3093);stroke-width:1;stroke-linecap:round;stroke-linejoin:miter;stroke-miterlimit:4;stroke-dasharray:none;stroke-dashoffset:0;stroke-opacity:1" />
    <path
       d="m 8.59997,0.49996 c 10.77009,0 47.00003,0.004 47.00003,0.004 l 5e-5,58.99622 H 8.59997 V 0.50021 Z"
       id="path4160-6-1-7"
       style="display:inline;fill:none;stroke:url(#linearGradient3033);stroke-width:0.999922;stroke-linecap:butt;stroke-linejoin:round;stroke-miterlimit:4;stroke-dasharray:none;stroke-dashoffset:0;stroke-opacity:1" />
    <g
       id="g950">
      <path
         id="rect874"
         d="m 30,10 v 4 h 4 v -4 z m 4,4 v 4 h 4 v -4 z m 0,4 h -4 v 4 h 4 z m -4,0 v -4 h -4 v 4 z m 0,15.96875 V 34 h 4 v -0.03125 z"
         style="opacity:0.2;fill:#68b723;fill-opacity:0.972549;stroke:none;stroke-width:1;stroke-opacity:1" />
      <path
         id="rect858"
         d="m 26,18 v 4 h 4 v -4 z m 4,4 v 4 h 4 4 v -4 -4 h -4 v 4 z m 0,4 h -4 v 4 h 4 z"
         style="opacity:0.6;fill:#68b723;fill-opacity:0.972549;stroke:none;stroke-width:1;stroke-opacity:1" />
      <path
         id="path10518"
         d="m 30,26 v 4 h 4 v -4 z m 4,4 v 4 h -4 v -4 h -4 v 3.710938 H 18 L 32,51 46,33.710938 l -8,0.002 V 30 Z"
         style="color:#bebebe;display:inline;overflow:visible;visibility:visible;fill:#68b723;fill-opacity:1;fill-rule:nonzero;stroke:none;stroke-width:1;marker:none;enable-background:accumulate" />
    </g>
  </g>
</svg>

<?xml version="1.0" encoding="UTF-8" standalone="no"?>
<svg
   xmlns:dc="http://purl.org/dc/elements/1.1/"
   xmlns:cc="http://creativecommons.org/ns#"
   xmlns:rdf="http://www.w3.org/1999/02/22-rdf-syntax-ns#"
   xmlns:svg="http://www.w3.org/2000/svg"
   xmlns="http://www.w3.org/2000/svg"
   xmlns:xlink="http://www.w3.org/1999/xlink"
   height="64.000282"
   id="svg11300"
   style="display:inline;enable-background:new"
   version="1.0"
   viewBox="0 0 64 64.000282"
   width="64">
  <metadata
     id="metadata155">
    <rdf:RDF>
      <cc:Work
         rdf:about="">
        <dc:format>image/svg+xml</dc:format>
        <dc:type
           rdf:resource="http://purl.org/dc/dcmitype/StillImage" />
        <dc:title>elementary Icon Template</dc:title>
      </cc:Work>
    </rdf:RDF>
  </metadata>
  <title
     id="title4162">elementary Icon Template</title>
  <defs
     id="defs3">
    <linearGradient
       id="linearGradient10457">
      <stop
         id="stop10453"
         offset="0"
         style="stop-color:#000000;stop-opacity:1;" />
      <stop
         id="stop10455"
         offset="1"
         style="stop-color:#000000;stop-opacity:0;" />
    </linearGradient>
    <linearGradient
       id="linearGradient3977">
      <stop
         id="stop3979"
         offset="0"
         style="stop-color:#ffffff;stop-opacity:1" />
      <stop
         id="stop3981"
         offset="0"
         style="stop-color:#ffffff;stop-opacity:0.23529412" />
      <stop
         id="stop3983"
         offset="1"
         style="stop-color:#ffffff;stop-opacity:0.15686275" />
      <stop
         id="stop3985"
         offset="1"
         style="stop-color:#ffffff;stop-opacity:0.39215687" />
    </linearGradient>
    <linearGradient
       id="linearGradient3600">
      <stop
         id="stop3602"
         offset="0"
         style="stop-color:#f4f4f4;stop-opacity:1" />
      <stop
         id="stop3604"
         offset="1"
         style="stop-color:#dbdbdb;stop-opacity:1" />
    </linearGradient>
    <linearGradient
       id="linearGradient5048">
      <stop
         id="stop5050"
         offset="0"
         style="stop-color:#000000;stop-opacity:0" />
      <stop
         id="stop5056"
         offset="0.5"
         style="stop-color:#000000;stop-opacity:1" />
      <stop
         id="stop5052"
         offset="1"
         style="stop-color:#000000;stop-opacity:0" />
    </linearGradient>
    <linearGradient
       id="linearGradient3104-6">
      <stop
         id="stop3106-3"
         offset="0"
         style="stop-color:#000000;stop-opacity:0.31782946" />
      <stop
         id="stop3108-9"
         offset="1"
         style="stop-color:#000000;stop-opacity:0.24031007" />
    </linearGradient>
    <linearGradient
       gradientTransform="matrix(1.0843523,0,0,1.1997367,79.65086,-4.1628)"
       gradientUnits="userSpaceOnUse"
       xlink:href="#linearGradient3104-6"
       id="linearGradient3033"
       x1="-51.786404"
       x2="-51.786404"
       y1="50.786446"
       y2="2.9062471" />
    <linearGradient
       gradientTransform="matrix(1.2162162,0,0,1.5405376,2.91082,-6.97289)"
       gradientUnits="userSpaceOnUse"
       xlink:href="#linearGradient3977"
       id="linearGradient3093"
       x1="23.99999"
       x2="23.99999"
       y1="5.8641062"
       y2="42.175503" />
    <linearGradient
       gradientTransform="matrix(1.3142827,0,0,1.2602393,0.55721,-2.17926)"
       gradientUnits="userSpaceOnUse"
       xlink:href="#linearGradient3600"
       id="linearGradient3096"
       x1="25.132275"
       x2="25.132275"
       y1="0.98520643"
       y2="47.013336" />
    <radialGradient
       cx="605.71429"
       cy="486.64789"
       fx="605.71429"
       fy="486.64789"
       gradientTransform="matrix(0.03132633,0,0,0.02058823,35.32086,49.45148)"
       gradientUnits="userSpaceOnUse"
       xlink:href="#linearGradient10457"
       id="radialGradient3153"
       r="117.14286" />
    <radialGradient
       cx="605.71429"
       cy="486.64789"
       fx="605.71429"
       fy="486.64789"
       gradientTransform="matrix(-0.03132632,0,0,0.02058823,28.87914,49.45148)"
       gradientUnits="userSpaceOnUse"
       xlink:href="#linearGradient10457"
       id="radialGradient3156"
       r="117.14286" />
    <linearGradient
       gradientTransform="matrix(0.09153846,0,0,0.02058823,-0.98462,49.45148)"
       gradientUnits="userSpaceOnUse"
       xlink:href="#linearGradient5048"
       id="linearGradient3842"
       x1="302.85715"
       x2="302.85715"
       y1="366.64789"
       y2="609.50507" />
  </defs>
  <g
     id="g962">
    <rect
       height="5"
       id="rect2879-94"
       style="display:inline;overflow:visible;visibility:visible;opacity:0.15;fill:url(#linearGradient3842);fill-opacity:1;fill-rule:nonzero;stroke:none;stroke-width:1;marker:none"
       width="44.199997"
       x="10"
       y="57.000065" />
    <path
       d="m 10,57.00028 v 4.9997 c -1.61323,0.01 -3.9,-1.1202 -3.9,-2.5002 0,-1.38 1.80024,-2.4995 3.9,-2.4995 z"
       id="path2881"
       style="display:inline;overflow:visible;visibility:visible;opacity:0.15;fill:url(#radialGradient3156);fill-opacity:1;fill-rule:nonzero;stroke:none;stroke-width:1;marker:none" />
    <path
       d="m 54.2,57.00028 v 4.9997 c 1.61323,0.01 3.9,-1.1202 3.9,-2.5002 0,-1.38 -1.80024,-2.4995 -3.9,-2.4995 z"
       id="path2883"
       style="display:inline;overflow:visible;visibility:visible;opacity:0.15;fill:url(#radialGradient3153);fill-opacity:1;fill-rule:nonzero;stroke:none;stroke-width:1;marker:none" />
    <path
       d="m 9.1,0.99994 c 10.54093,0 45.99994,0.004 45.99994,0.004 L 55.1,59.00008 H 9.1 V 1.00026 Z"
       id="path4160-6"
       style="display:inline;fill:url(#linearGradient3096);fill-opacity:1;stroke:none" />
    <path
       d="M 54.6,58.50008 H 9.6 V 1.50004 h 45 z"
       id="rect6741-1-8"
       style="fill:none;stroke:url(#linearGradient3093);stroke-width:1;stroke-linecap:round;stroke-linejoin:miter;stroke-miterlimit:4;stroke-dasharray:none;stroke-dashoffset:0;stroke-opacity:1" />
    <path
       d="m 8.59997,0.49996 c 10.77009,0 47.00003,0.004 47.00003,0.004 l 5e-5,58.99622 H 8.59997 V 0.50021 Z"
       id="path4160-6-1-7"
       style="display:inline;fill:none;stroke:url(#linearGradient3033);stroke-width:0.9999218;stroke-linecap:butt;stroke-linejoin:round;stroke-miterlimit:4;stroke-dasharray:none;stroke-dashoffset:0;stroke-opacity:1" />
    <g
       id="g950">
      <path
         id="rect874"
         d="M 30 10 L 30 14 L 34 14 L 34 10 L 30 10 z M 34 14 L 34 18 L 38 18 L 38 14 L 34 14 z M 34 18 L 30 18 L 30 22 L 34 22 L 34 18 z M 30 18 L 30 14 L 26 14 L 26 18 L 30 18 z M 30 33.96875 L 30 34 L 34 34 L 34 33.96875 L 30 33.96875 z "
         style="opacity:0.2;fill:#68b723;fill-opacity:0.97254902;stroke:none;stroke-width:1;stroke-opacity:1" />
      <path
         id="rect858"
         d="M 26 18 L 26 22 L 30 22 L 30 18 L 26 18 z M 30 22 L 30 26 L 34 26 L 38 26 L 38 22 L 38 18 L 34 18 L 34 22 L 30 22 z M 30 26 L 26 26 L 26 30 L 30 30 L 30 26 z "
         style="opacity:0.6;fill:#68b723;fill-opacity:0.97254902;stroke:none;stroke-width:0.99999994;stroke-opacity:1" />
      <path
         id="path10518"
         d="M 30 26 L 30 30 L 34 30 L 34 26 L 30 26 z M 34 30 L 34 34 L 30 34 L 30 30 L 26 30 L 26 33.710938 L 18 33.710938 L 32 51 L 46 33.710938 L 38 33.712891 L 38 30 L 34 30 z "
         style="color:#bebebe;display:inline;overflow:visible;visibility:visible;fill:#68b723;fill-opacity:1;fill-rule:nonzero;stroke:none;stroke-width:0.99999994;marker:none;enable-background:accumulate" />
    </g>
  </g>
</svg>
